symbols/web/free_cancellation/materialsymbolssharp/free_cancellation_wght500grad200fill1_24px.svg

<svg xmlns="http://www.w3.org/2000/svg" height="24" width="24"><path d="m16.7 23.6-4.125-4.125L14.55 17.5l2.125 2.125 4.25-4.25 1.975 2Zm-9.075-5.875L5.65 15.75l1.6-1.6-1.6-1.6 1.975-1.975 1.6 1.6 1.6-1.6L12.8 12.55l-1.6 1.6 1.6 1.6-1.975 1.975-1.6-1.6Zm-5.5 5.125V3.075H5.2V1.15h2.675v1.925h8.25V1.15H18.8v1.925h3.075v8.5l-2.825 2.85v-4.85H4.95v10.45h5.35l2.8 2.825Z"/></svg>

<svg xmlns="http://www.w3.org/2000/svg" height="24" width="24"><path d="M16.7 23.6 12.575 19.475 14.55 17.5 16.675 19.625 20.925 15.375 22.9 17.375ZM7.575 17.675 5.6 15.7 7.2 14.1 5.6 12.5 7.575 10.525 9.175 12.125 10.775 10.525 12.75 12.5 11.15 14.1 12.75 15.7 10.775 17.675 9.175 16.075ZM2.125 22.85V3.075H5.2V1.15H7.875V3.075H16.125V1.15H18.8V3.075H21.875V11.575L19.05 14.425V9.575H4.95V20.025H10.3L13.1 22.85Z"/></svg>
